X:1
T:Danse Macabre
T:For Four Tubas
T:Saint Saens
%%score 1 2 3 4
L:1/8
Q:1/4=210
M:3/4
K:Bb
V:1 bass nm="C Tuba" snm="C Tu."
V:2 bass nm="C Tuba" snm="C Tu."
V:3 bass nm="C Tuba" snm="C Tu."
V:4 bass nm="C Tuba" snm="C Tu."
V:1
"^Prestissimo (210)" z6 | z6 | z6 | z6 |!pp! D,6- | D,6- | D,6- | D,6 | z6 | z6 | z6 | z6 | ^F,6- | %13
 F,6- | F,6- | F,6 | z6 |[Q:1/4=222]"^Faster (222)" z6 | z6 | z6 | z6 | z6 | z6 | z6 | %24
!f![Q:1/4=200]"^Prestissimo (200)" !>!E,6 | z6 | E,4 E,2 | z6 | E,E, E,2 z2 | E,E, E,2 z2 | %30
 E,2 z2 E,2 | z2 E,2 D,2 | G,,2!p! G,,2 G,,2 | z2 G,2 G,2 | z2 G,2 G,2 | z2 G,2 G,2 | z2 _A,2 A,2 | %37
 z2 _A,2 A,2 | z2 _A,2 A,2 | z2 _A,2 A,2 |!f! G,2 G,B, G,A, | B,2 A,B, G,B, | %42
 (3A,/B,/A,/G, G,B, G,A, | B,2 A,B, G,B, | !tenuto!_A, z A,C A,B, | C2 B,C _A,C | %46
 (3B,/C/B,/_A, A,C A,B, | C2 _A,C B,A, | G,2 z4 | z2!p! D,2 D,2 | z2 D,2 D,2 | z2 B,,2 B,,2 | %52
 z2 B,,2 B,,2 | z2 B,,2 B,,2 | z2 A,,2 A,,2 | z2 ^C,2 C,2 | z2 A,,2 A,,2 | z2!mp! B,,2 B,,2 | %58
 z2 D,2 D,2 | z2 B,,2 B,,2 | z2 B,,2 B,,2 | z2 B,,2 B,,2 | z2 A,,2 A,,2 | ^F,4 =E,2 | %64
[Q:1/4=210]"^Faster (210)" ^F,2!p! D,F, D,=E, | ^F,2 =E,F, D,F, | =E,D, D,^F, D,E, | %67
 ^F,2 =E,F, D,F, |[Q:1/4=215]"^Faster (215)" G,2!mp! E,2 E,2 | z2 E,2 E,2 | z2 E,2 E,2 | %71
 z2 E,2 E,2 |[Q:1/4=220]"^Faster (220)" z2!p! D,^F, D,=E, | ^F,2 =E,F, D,F, | =E,D, D,^F, D,E, | %75
 ^F,2 =E,F, D,F, | G,2!mf! E,2 E,2 | z2 E,2 E,2 | z2 E,2 E,2 | z2 E,2 E,2 | D,2 z4 | E,2 z4 | %82
 E,2 z2 E,2 | z2 E,2 !tenuto!D,2 | D,2 z4 | G,2 z4 | G,2 z4 | G,2 z4 | _A,2 z4 | _A,2 z4 | %90
 _A,2 z4 | _A,2 z4 |!ff! G,2 G,B, G,A, | B,2 A,B, G,B, | (3A,/B,/A,/G, G,B, G,A, | B,2 A,B, G,B, | %96
 !tenuto!_A, z A,C A,B, | C2 B,C _A,C | (3B,/C/B,/_A, A,C A,B, | C2 _A,C B,A, | G,2 z2 D,2 | %101
 G,4 G,2 | F,4 F,2 | =E,4 E,2 | E,4 E,2 | D,2 =E,2 G,2 | ^F,2 =E,2 D,2 | =E,4 E,2 | ^F,4 D,2 | %109
 G,4 G,2 | F,4 F,2 | =E,4 E,2 | E,4 E,2 | D,2 G,2 B,2 | A,2 ^F,2 D,2 | ^F,4 =E,2 | %116
!pp! D,2 D,2 D,2 | z2 D,2 D,2 | z2 D,2 D,2 | z2 D,2 D,2 | z2!f! G,B, G,A, | B,2 E,G, E,F, | %122
 G,2 G,,E, G,,D, | E,2 E,E, E,E, | D,2!pp! D,2 D,2 | z2 D,2 D,2 | z2 D,2 D,2 | z2 D,2 D,2 | %128
 z2!f! G,B, G,A, | B,2 E,G, E,F, | G,2 G,,E, G,,D, | E,2 E,E, E,E, |!f! D,2 z4 | E,2 z4 | %134
 E,2 z2 E,2 | z2 E,2 D,2 | G,2 z4 | z6 | z6 | z6 | z6 | z6 | z6 | z6 | z6 | z6 | z6 | z6 | z6 | %149
 z6 | z6 | G,G, G,2 G,2 | F,F, F,2 F,2 | =E,E, E,2 E,2 | E,E, E,2 E,2 | D,2 =E,2 G,2 | %156
 F,2 =E,2 D,2 | =E,E, A,2 A,2 | D,D, D,2 D,2 | C,C, C,2 C,2 | =B,,B,, B,,2 B,,2 | %161
 A,,A,, A,,2 A,,2 | =B,,2 z2!p! ^C2 | =B,2 z2 ^C2 | A,2 z2 =B,2 | ^G,2 z2 A,2 | A,2 z2 ^C2 | %167
 ^C2 z2 D2 | ^C2 =B,2 A,2 | ^C2 z2 =B,2 | =B,2 z2 D2 | ^C2 z2 D2 | =B,2 z2 ^C2 | A,2 z2 =B,2 | %174
 =B,2 z2 D2 | D2 z2 =E2 | D2 ^C2 =B,2 | D2 z2 ^C2 | ^C2 z2 F,2 | =E,2 z2 E,2 | D,2 z2 =E,2 | %181
 ^C,2 z2 D,2 | D,2 z2 F,2 | F,2 z2 G,2 | F,2 =E,2 D,2 | F,2 z2 =E,2 | =E,2 z2 G,2 | F,2 z2 G,2 | %188
 =E,2 z2 F,2 | D,2 z2 =E,2 | =E,2 z2 G,2 | G,2 z2 A,2 | G,2 F,2 =E,2 | G,2 z2 G,2 || %194
[K:B]!p![Q:1/4=188]"^Presto (188)" F,2 z4 | z6 | z6 | z6 | z6 | z6 | z6 | z6 | z4 F,2 | B,4 B,2 | %204
 ^A,4 A,2 | =A,4 A,2 | =G,4 G,2 | F,2 =G,2 B,2 | =A,2 =G,2 F,2 | =G,4 G,2 | B,6 | z6 | z6 | z6 | %214
 z6 | z6 | z6 | z6 | z4 F,2 | B,4 B,2 | ^A,4 A,2 | =A,4 A,2 | G,4 G,2 | E,2 F,2 =A,2 | %224
 =G,2 F,2 E,2 | =G,4 G,2 |[Q:1/4=210]"^Prestissimo (210)" z6 | z6 |!mp! !~(!B,6 | !~(!F,6 | %230
 !~)!D,2 z4 | z6 | !~(!B,6 | !~(!F,6 |[Q:1/4=220]"^Faster (220)" !~)!B,,!mp!F,, F,,2 F,,2 | %235
 F,,F,, F,,2 F,,2 | F,,F,, F,,2 F,,2 | F,,F,, F,,2 F,,2 | F,,F,, F,,2 F,,2 | F,,F,, F,,2 F,,2 | %240
 _G,,G,, G,,2 G,,2 | _G,,G,, G,,2 G,,2 |[K:Bb] z6 | z6 | E,G, E,F, G,2 | z6 | E,G, E,F, G,2 | z6 | %248
 E,G, E,F, G,2 |!f! E,G, E,F, G,2 |!ff! E,G, E,F, G,2 |!fff! G,4 G,2 | D,4 D,2 | G,4 G,2 | %254
 D,4 D,2 |!ff! F,4 F,2 | C,4 C,2 | E,4 E,2 | B,,4 B,,2 |!f! A,4 A,2 | G,4 G,2 | F,4 F,2 | E,4 E,2 | %263
!mf! D,4 D,2 | E,4 E,2 | D,4 D,2 | E,4 E,2 |!mp! D,4 D,2 | B,,4 B,,2 | A,,4 A,,2 | B,,4 B,,2 | %271
!p![Q:1/4=210]"^Slower (210)" A,,2 z2 z2 | A,,2 z2 z2 | A,,2 z2 z2 | A,,2 z2 z2 | %275
 z!pp! A, _A,G, _G,F, | =E,_E, D,_D, C,=B,, | B,,A,, _A,,G,, _G,,F,, | =E,,_E,, D,,_D,, C,,B,,, | %279
 A,,, z z2 z2 |!p! A,,2 z2 z2 |!mp! A,,2 z2 z2 |!mf! A,,2 z2 z2 | z!p! A, _A,G, _G,F, | %284
 =E,_E, D,_D, C,=B,, | B,,A,, _A,,G,, _G,,F,, | =E,,_E,, D,,_D,, C,,B,,, | A,,,2 z2 z2 | %288
!f! E,E, E,2 z2 | E,2 E,2 E,2 | E,2 z2!mp! D,2 | E,2 E,2 z2 | F,F, F,2 z2 | F, z F, z F, z | %294
 F,2 F,2!mf! E,2 | E,2 E,2!mp! E,2 | C,C, C,2!mf! C,2 | G,2 G,2!mp! G,2 | G,G, G,2!pp! G,2 | %299
 A,2 z2 z2 | z6 | z4!mp! D,2 | F,2 =E,2 D,2 | =E,6 | A,,6 | z4 C,2 | E,2 D,2 C,2 | D,6 | G,,6 | %309
 z4 G,,2 | B,,2 A,,2 G,,2 | A,,4 =E,,2 | G,,6- | G,,6 | E,,6 |!pp! D,,4 E,,2 | =E,,4 F,,2 | %317
 A,,2 _A,,2 G,,2 | ^F,,4 G,,2 |!p! A,,4 B,,2 | D,2 _D,2 C,2 | =B,,4 C,2 | E,4 D,2 |!mp! =E,4 D,2 | %324
 A,2 _A,2 G,2 | ^F,4 G,2 | A,2 _A,2 G,2 |!mf! ^F,4 G,2 | A,2 _A,2 G,2 | ^F,4 G,2 | ^F,4 G,2 | %331
 ^F,4 G,2 |!f! A,4 B,2 | A,4 B,2 | A,4 B,2 | A,4 B,2 | A,2 A,A, A,A, | A,2 A,2 A,2 | %338
 ^F,C, E,D, C,A,, | A,,2 A,,2 A,,2 | z6 | D,2 z2 z2 | D,2 z2 z2 | z6 | z6 | z6 |!ff! A,B, CD =E^F | %347
 G2 z2!fff! D,2 | G,4 G,2 | F,4 F,2 | =E,4 E,2 | _E,4 E,2 | D,2 =E,2 G,2 | ^F,2 =E,2 D,2 | %354
 =E,4 E,2 | ^F,2 z2 D,2 | G,4 G,2 | F,4 F,2 | =E,4 E,2 | _E,4 E,2 | D,2 G,2 B,2 | A,2 ^F,2 D,2 | %362
 ^F,4 =E,2 |[Q:1/4=220]"^Faster (220)" D,2 z4 | z6 | z6 | z6 | z2!f! D,D, D,D, | ^F,2 D,D, D,D, | %369
 ^F,2 D,D, D,D, | ^F,2 D,D, D,D, | G,2 z4 | (G,B,) (A,^G,) (G,=G,) | (G,^F,) (F,=F,) (F,=E,) | %374
 (=E,_E,) (E,D,) (D,^C,) | (^C,=C,) (C,=B,,) (B,,_B,,) | _A,,G,, A,,C, B,,A,, | %377
 G,,^F,, G,,B,, A,,G,, | ^F,,A,, D,^F, A,D | B,2 G,2 z2 | (G,B,) (A,^G,) (G,=G,) | %381
 (G,^F,) (F,=F,) (F,=E,) | (=E,_E,) (E,D,) (D,^C,) | (^C,=C,) (C,=B,,) (B,,_B,,) | %384
 _A,,G,, A,,C, B,,A,, | G,,^F,, G,,B,, A,,G,, | ^F,,A,, D,^F, A,D | B,G, D,B,, G,,D,, | z6 | z6 | %390
 ^F,,A,, D,^F, A,D | z6 | A,,,D,, ^F,,A,, D,^F, | G,2 z4 | z6 | z6 | _A,,C, A,,B,, C,2 | %397
 ^F,,=A,, F,,G,, A,,2 | z6 | z6 | z6 | _A,,C, A,,B,, C,2 | ^F,,=A,, F,,G,, A,,2 | %403
 !~(!G,,2 !~)!G,2 z2 | !~(!^F,,2 !~)!^F,2 z2 | !~(!G,,2 !~)!G,2 z2 | !~(!^F,,2 !~)!^F,2 z2 | %407
 !~(!G,,2 !~)!G,2 z2 | !~(!G,,2 !~)!G,2 z2 | !~(!G,,2 !~)!G,2 z2 | G,2 G,2 G,2 | G,2 G,2 G,2 | %412
 G,2 G,2 G,2 | G,2 G,2 G,2 | G,2 G,2 G,2 |[Q:1/4=210]"^Prestissimo (210)" z6 | z6 | %417
!mf! !tenuto!E,2 z B, B,2 | E,2 G,4- | G,6- | G,6- | G,6 |!p! E,6- | !fermata!E,6 | %424
!mf![Q:1/4=136]"^Allegro (136)" D6 | B,2 A,2 G,2 | G,6- | G,2 z4 | B,6 | G,2 F,2 E,2 | E,6- | %431
 E,2 z4 | z2 z2 E,2 | A,,2 B,,2 C,2 | E,6 | E,6 |!f![Q:1/4=210]"^Prestissimo (248)" TD,6- | D,6- | %438
 D,6- | D,6- | D,6- | D,6- |[Q:1/4=210]"^Slower (222)" D,6- | D,6 |!p! D,2 z4 |!pp! ^F,2 z4 | %446
!ppp! G,2 z4 |] %447
V:2
 z6 | z6 | z6 | z6 |!pp! A,,6- | A,,6- | A,,6- | A,,6 | z6 | z6 | z6 | z6 | D,6- | D,6- | D,6- | %15
 D,6 | z6 | z6 | z6 | z6 | z6 | z6 | z6 | z6 |!f! !>!A,,6 | z6 | A,,4 A,,2 | z6 | A,,A,, A,,2 z2 | %29
 A,,A,, A,,2 z2 | A,,2 z2 A,,2 | z2 A,,2 A,,2 | D,2!p! D,2 D,2 | z2 D,2 D,2 | z2 D,2 D,2 | %35
 z2 D,2 D,2 | z2 E,2 E,2 | z2 E,2 E,2 | z2 E,2 E,2 | z2 E,2 E,2 | z2!mf! D,2 D,2 | z2 D,2 D,2 | %42
 z2 D,2 D,2 | z2 D,2 D,2 | z2 E,2 E,2 | z2 E,2 E,2 | z2 E,2 E,2 | z2 E,2 E,2 | D,2 z2!mp! D,2 | %49
 G,4 G,2 | F,4 F,2 | =E,4 E,2 | E,4 E,2 | D,2 =E,2 G,2 | ^F,2 =E,2 D,2 | =E,4 E,2 | ^F,4!mf! D,2 | %57
 G,4 G,2 | F,4 F,2 | =E,4 E,2 | E,4 E,2 | D,2 G,2 B,2 | A,2 ^F,2 D,2 | D,4 ^C,2 | %64
 D,2!pp! A,,2 A,,2 | z2 A,,2 A,,2 | z2 A,,2 A,,2 | z2 A,,2 A,,2 | z2!mp! B,,2 B,,2 | z2 B,,2 B,,2 | %70
 z2 B,,2 B,,2 | z2 B,,2 B,,2 | z2!pp! A,,2 A,,2 | z2 A,,2 A,,2 | z2 A,,2 A,,2 | z2 A,,2 A,,2 | %76
 z2!mf! B,,2 B,,2 | z2 B,,2 B,,2 | z2 B,,2 B,,2 | z2 B,,2 B,,2 | A,,2 z4 | A,,2 z4 | A,,2 z2 A,,2 | %83
 z2 A,,2 !tenuto!A,,2 | B,,2 z4 | D,2 z4 | D,2 z4 | D,2 z4 | C,2 z4 | C,2 z4 | C,2 z4 | C,2 z4 | %92
!f! D,2 D,2 D,2 | z2 D,2 D,2 | z2 D,2 D,2 | z2 D,2 D,2 | z2 E,2 E,2 | z2 E,2 E,2 | z2 E,2 E,2 | %99
 z2 E,2 E,2 | D,2 D,2 z2 | z2 D,2 z2 | z2 D,2 z2 | z2 D,2 z2 | z2 D,2 z2 | z2 ^C,2 z2 | %106
 z2 ^C,2 z2 | z2 ^C,2 z2 | z2 D,2 z2 | z2 D,2 z2 | z2 D,2 z2 | z2 D,2 z2 | z2 D,2 z2 | z2 ^C,2 z2 | %114
 z2 ^C,2 z2 | z2 A,,2 ^C,2 |!pp! A,,2 A,,2 A,,2 | z2 A,,2 A,,2 | z2 A,,2 A,,2 | z2 A,,2 A,,2 | %120
 z2 G,,2 G,,2 | z2 G,,2 G,,2 | z2 G,,2 G,,2 | z2 G,,2 G,,2 | z2!pp! A,,2 A,,2 | z2 A,,2 A,,2 | %126
 z2 A,,2 A,,2 | z2 A,,2 A,,2 | z2!mf! G,,2 G,,2 | z2 G,,2 G,,2 | z2 G,,2 G,,2 | z2 G,,2 G,,2 | %132
!f! A,,2 z4 | A,,2 z4 | A,,2 z2 A,,2 | z2 A,,2 A,,2 | D,2 z4 | z6 | z6 | z6 | z6 | z6 | z6 | %143
 z4 A,,2 | D,D, D,2 D,2 | C,C, C,2 C,2 | =B,,B,, B,,2 B,,2 | B,,B,, B,,2 B,,2 | A,,2 =B,,2 D,2 | %149
 C,2 =B,,2 A,,2 | C,C, G,2 D,2 | z6 | z6 | z6 | z6 | z6 | z6 | z6 | A,,A,, A,,2 A,,2 | %159
 A,,A,, A,,2 A,,2 | F,,F,, F,,2 F,,2 | ^F,,F,, F,,2 F,,2 | ^G,,2 z2!p! =E,2 | D,2 z2 =E,2 | %164
 ^C,2 z2 D,2 | =B,,2 z2 ^C,2 | ^C,2 z2 =E,2 | =E,2 z2 F,2 | =E,2 D,2 ^C,2 | =E,2 z2 D,2 | %170
 D,2 z2 F,2 | =E,2 z2 F,2 | D,2 z2 =E,2 | ^C,2 z2 D,2 | D,2 z2 F,2 | F,2 z2 G,2 | F,2 =E,2 D,2 | %177
 F,2 z2 =E,2 | =E,2 z2 A,,2 | G,,2 z2 A,,2 | F,,2 z2 G,,2 | =E,,2 z2 F,,2 | F,,2 z2 A,,2 | %183
 A,,2 z2 B,,2 | A,,2 G,,2 F,,2 | A,,2 z2 G,,2 | G,,2 z2 B,,2 | A,,2 z2 B,,2 | G,,2 z2 A,,2 | %189
 F,,2 z2 G,,2 | G,,2 z2 =E,2 | =E,2 z2 F,2 | =E,2 D,2 ^C,2 | =E,2 z2 E,2 ||[K:B]!p! D,2 z2 F,,2 | %195
 B,,4 B,,2 | ^A,,4 A,,2 | =A,,4 A,,2 | =G,,4 G,,2 | F,,2 =G,,2 B,,2 | =A,,2 =G,,2 F,,2 | %201
 =G,,4 G,,2 | B,,4 F,,2 | B,,4 B,,2 | ^A,,4 A,,2 | =A,,4 A,,2 | =G,,4 G,,2 | F,,2 =G,,2 B,,2 | %208
 =A,,2 =G,,2 F,,2 | =G,,4 G,,2 | B,,4 F,,2 | B,,4 B,,2 | ^A,,4 A,,2 | =A,,4 A,,2 | G,,4 G,,2 | %215
 E,,2 F,,2 =A,,2 | =G,,2 F,,2 E,,2 | =G,,4 G,,2 | F,,4 F,,2 | B,,4 B,,2 | ^A,,4 A,,2 | =A,,4 A,,2 | %222
 G,,4 G,,2 | E,,2 F,,2 =A,,2 | =G,,2 F,,2 E,,2 | =G,,4 G,,2 |!mp! !~(!B,,6 | !~(!F,6 | %228
 !~)!B,2 z2 z2 | z6 | !~(!B,,6 | !~(!F,6 | !~)!B,2 z2 z2 | z6 |!mf! F,,2 D,F, D,^E, | %235
 F,2 ^E,2 D,2 | z2 D,F, D,^E, | F,2 ^E,2 D,2 | z2 D,F, D,^E, | F,2 ^E,2 D,2 | z2 =C,_E, C,=D, | %241
 _E,2 =D,2 =C,2 |[K:Bb] G,2 z2 z2 | D,D, D,D, D,2 | z6 | D,D, D,D, D,2 | z6 | D,D, D,D, D,2 | z6 | %249
 z6 | z6 |!fff! E,4 E,2 | A,,4 A,,2 | E,4 E,2 | A,,4 A,,2 |!ff! D,4 D,2 | G,,4 G,,2 | C,4 C,2 | %258
 F,,4 F,,2 |!f! E,4 E,2 | D,4 D,2 | C,4 C,2 | B,,4 B,,2 |!mf! A,,4 A,,2 | B,,4 B,,2 | A,,4 A,,2 | %266
 B,,4 B,,2 |!mp! ^F,,4 F,,2 | G,,4 G,,2 | ^F,,4 F,,2 | G,,4 G,,2 |!p! ^F,,2 z2 z2 | ^F,,2 z2 z2 | %273
 ^F,,2 z2 z2 | ^F,,2 z2 z2 |!pp! G,^F, =F,=E, _E,D, | ^C,=C, =B,,_B,, A,,_A,, | %277
 G,,^F,, =F,,=E,, _E,,D,, | ^C,,=C,, =B,,,_B,,, A,,,G,,, | ^F,,, z z2 z2 |!p! ^F,,2 z2 z2 | %281
!mp! ^F,,2 z2 z2 |!mf! ^F,,2 z2 z2 |!p! G,^F, =F,=E, _E,D, | ^C,=C, =B,,_B,, A,,_A,, | %285
 G,,^F,, =F,,=E,, _E,,D,, | ^C,,=C,, =B,,,_B,,, A,,,G,,, | ^F,,,2 z2 z2 |!f! A,,A,, A,,2 z2 | %289
 A,,2 A,,2 A,,2 | z2 z2!mp! A,,2 | B,,2 B,,2 B,,2 | B,,B,, B,,2 B,,2 | B,,B,, B,,B,, B,,B,, | %294
 B,,2 B,,2!mf! B,,2 | B,,2 B,,2!mp! _A,,2 | _A,,A,, A,,2!mf! A,,2 | _D,2 D,2!mp! =E,2 | %298
 =E,E, E,2 E,2 |!p! ^F,2 D,F, D,=E, | ^F,2 =E,2 D,2 | =F,2 =E,2 D,2 | z6 | z2 ^C,=E, C,D, | %304
 =E,2 D,2 ^C,2 | _E,2 D,2 =C,2 | z6 | z2 =B,,D, B,,C, | D,2 C,2 =B,,2 | D,2 C,2 B,,2 | z6 | %311
 z2 A,,^C, A,,=B,, | ^C,2 =B,,2 A,,2 | B,,C, G,,C, G,,C, | G,,C, G,,C, G,,C, |!pp! A,,,4 B,,,2 | %316
 =B,,,4 C,,2 | D,,4 D,,2 | C,,4 D,,2 |!p! =E,,4 F,,2 | _A,,4 G,,2 | F,,4 G,,2 | B,,4 A,,2 | %323
!mp! C,4 B,,2 | E,6 | C,4 D,2 | E,6 |!mf! C,4 D,2 | E,6 | C,4 D,2 | C,4 D,2 | C,4 D,2 | %332
!f! E,C, E,D, C,B,, | E,C, E,D, C,B,, | E,C, E,D, C,B,, | E,C, E,D, C,B,, | E,C, E,D, C,B,, | %337
 C,B,, A,,^F,, A,,G,, | z2 A,,A,, A,,A,, | C,B,, A,,^F,, A,,G,, | D,2 z4 | ^F,,C,, E,,D,, C,,A,,, | %342
 D,,2 z4 | D,2 z4 | D,2 z4 |!ff! ^C,D, E,=E, ^F,G, | D,2 z4 | z2 G,,B,, G,,A,, | %348
 B,,2 A,,B,, G,,B,, | A,,G,, G,,B,, G,,A,, | B,,2 A,,B,, G,,B,, | A,,G,, G,,B,, G,,A,, | %352
 B,,2 A,,B,, G,,B,, | D,2 =E,^F, D,F, | G,2 z2 z2 | z2 G,,B,, G,,A,, | B,,2 A,,B,, G,,B,, | %357
 A,,G,, G,,B,, G,,A,, | B,,2 A,,B,, G,,B,, | A,,G,, G,,B,, G,,A,, | B,,2 A,,B,, G,,B,, | %361
 A,,4 A,,2 | A,,2 A,,B,, =B,,^C, | A,,2 z4 | z6 | z6 | z6 | z2!f! D,D, D,D, | D,2 D,D, D,D, | %369
 D,2 D,D, D,D, | D,2 D,D, D,D, | D,2 z4 | G,,2 G,,2 z2 | G,,2 G,,2 z2 | D,,2 D,,2 z2 | %375
 D,,2 D,,2 z2 | C,2 C,2 z2 | B,,2 B,,2 z2 | A,,2 A,,2 z2 | G,,G,, G,,2 z2 | G,,2 G,,2 z2 | %381
 G,,2 G,,2 z2 | D,,2 D,,2 z2 | D,,2 D,,2 z2 | C,2 C,2 z2 | B,,2 B,,2 z2 | A,,2 A,,2 z2 | z6 | %388
 ^F,,A,, D,^F, A,D | B,G, D,B,, G,,D,, | z6 | D,,^F,, A,,D, ^F,A, | z6 | G,2 F,2 E,2 | %394
 F,2 E,2 D,2 | E,2 D,2 C,2 | _A,,A,, A,,A,, A,,2 | =A,,A,, A,,A,, A,,2 | G,2 F,2 E,2 | %399
 F,2 E,2 D,2 | E,2 D,2 C,2 | _A,,A,, A,,A,, A,,2 | =A,,A,, A,,A,, A,,2 | D,2 D,2 z2 | E,2 E,2 z2 | %405
 D,2 D,2 z2 | E,2 E,2 z2 | D,2 D,2 z2 | D,2 D,2 z2 | D,2 D,2 z2 | D,2 D,2 D,2 | D,2 D,2 D,2 | %412
 D,2 D,2 D,2 | D,2 D,2 D,2 | D,2 D,2 D,2 | z6 | z6 | z6 | z6 | z6 | z6 | z6 |!p! B,,6- | %423
 !fermata!B,,6 | B,,6- | B,,6- | B,,6- | B,,6 | B,,6- | B,,6- | B,,6- | B,,6 | _A,,6- | A,,2 z4 | %434
 z6 | z6 | z6 | z6 | z6 | z6 | z6 | z4!mp! .G,2 | .A,2 .B,2 .G,2 | .D2 z4 | z6 |!pp! A,,2 z4 | %446
!ppp! B,,2 z4 |] %447
V:3
 z6 | z6 | z6 | z6 |!pp! ^F,,6- | F,,6- | F,,6- | F,,6 | z6 | z6 | z6 | z6 | A,,6- | A,,6- | %14
 A,,6- | A,,6 | z6 |!p! D,2 z4 | A,2 z4 | C,2 z4 | ^F,2 z4 | A,,2 z4 | C,2 z4 | E,2 z4 | D,2 z4 | %25
!f! !>!A,,6 | z6 | A,,4 A,,2 | z4 A,,2 | z4 A,,2 | z2 A,,2 z2 | A,,2 z2 ^F,,2 | %32
 G,,2!mf! G,,B,, G,,A,, | B,,2 A,,B,, G,,B,, | (3A,,/B,,/A,,/G,, G,,B,, A,,B,, | %35
 B,,2 A,,B,, G,,B,, | !tenuto!_A,, z A,,C, A,,B,, | C,2 B,,C, _A,,C, | %38
 (3B,,/C,/B,,/_A,, A,,C, A,,B,, | C,2 _A,,C, B,,A,, |!mf! G,,2 B,,2 B,,2 | z2 B,,2 B,,2 | %42
 z2 B,,2 B,,2 | z2 B,,2 B,,2 | z2 C,2 C,2 | z2 C,2 C,2 | z2 C,2 C,2 | z2 C,2 C,2 | B,,2 z4 | %49
 z2!p! B,,2 B,,2 | z2 F,,2 F,,2 | z2 G,,2 G,,2 | z2 G,,2 G,,2 | z2 G,,2 G,,2 | z2 ^F,,2 F,,2 | %55
 z2 A,,2 A,,2 | z2 ^F,,2 F,,2 | z2!mp! G,,2 G,,2 | z2 F,,2 F,,2 | z2 G,,2 G,,2 | z2 G,,2 G,,2 | %61
 z2 G,,2 G,,2 | z2 ^F,,2 F,,2 | z2 G,,2 G,,2 | z2!pp! ^F,,2 F,,2 | z2 ^F,,2 F,,2 | z2 ^F,,2 F,,2 | %67
 z2 ^F,,2 F,,2 |!f! B,,2 G,,B,, G,,A,, | B,,2 E,,G,, E,,F,, | G,,2 B,,,E,, B,,,D,, | %71
 E,,2 E,,E,, E,,E,, | D,,2!pp! ^F,,2 F,,2 | z2 ^F,,2 F,,2 | z2 ^F,,2 F,,2 | z2 ^F,,2 F,,2 | %76
 B,,2!f! G,,B,, G,,A,, | B,,2 E,,G,, E,,F,, | G,,2 B,,,E,, B,,,D,, | E,,2 E,,E,, E,,E,, | %80
 ^F,,2 A,,A,, A,,A,, | z2 A,,A,, A,,A,, | z2 A,,2 z2 | A,,2 z2 !tenuto!^F,,2 | G,,2 G,,B,, G,,A,, | %85
 B,,2 A,,B,, G,,B,, | (3A,,/B,,/A,,/G,, G,,B,, A,,B,, | B,,2 A,,B,, G,,B,, | %88
 !tenuto!_A,, z A,,C, A,,B,, | C,2 B,,C, _A,,C, | (3B,,/C,/B,,/_A,, A,,C, A,,B,, | %91
 C,2 _A,,C, B,,A,, | B,,2!f! B,,2 B,,2 | z2 B,,2 B,,2 | z2 B,,2 B,,2 | z2 B,,2 B,,2 | z2 C,2 C,2 | %97
 z2 C,2 C,2 | z2 C,2 C,2 | z2 C,2 C,2 | B,,2 B,,2 D,,2 | G,,2 B,,2 G,,2 | =F,,2 B,,2 F,,2 | %103
 =E,,2 B,,2 E,,2 | _E,,2 B,,2 E,,2 | D,,2 =E,,2 G,,2 | ^F,,2 =E,,2 D,,2 | =E,,2 A,,2 E,,2 | %108
 ^F,,2 A,,2 D,,2 | G,,2 B,,2 G,,2 | =F,,2 B,,2 F,,2 | =E,,2 B,,2 E,,2 | _E,,2 B,,2 E,,2 | %113
 D,,2 G,,2 B,,2 | A,,2 ^F,,2 D,,2 | ^F,,4 =E,,2 |!p! D,,2 D,,^F,, D,,=E,, | ^F,,2 =E,,F,, D,,F,, | %118
 (3=E,,/^F,,/E,,/D,, D,,F,, D,,E,, | ^F,,2 =E,,F,, D,,F,, | G,,2!mf! E,,2 E,,2 | z2 E,,2 E,,2 | %122
 z2 E,,2 E,,2 | z2 E,,2 E,,2 |!p! D,,2 D,,^F,, D,,=E,, | ^F,,2 =E,,F,, D,,F,, | %126
 (3=E,,/^F,,/E,,/D,, D,,F,, D,,E,, | ^F,,2 =E,,F,, D,,F,, | G,,2 E,,2 E,,2 | z2 E,,2 E,,2 | %130
 z2 E,,2 E,,2 | z2 E,,2 E,,2 |!f! ^F,,2 A,,A,, A,,A,, | z2 A,,A,, A,,A,, | z2 A,,2 z2 | %135
 A,,2 z2 ^F,,2 | B,,2 z2 D,,2 | G,,G,, G,,2 G,,2 | F,,F,, F,,2 F,,2 | =E,,E,, E,,2 E,,2 | %140
 E,,E,, E,,2 E,,2 | D,,D,, =E,,E,, G,,G,, | F,,F,, =E,,E,, D,,D,, | =E,,E,, A,,2 E,,2 | A,,2 z4 | %145
 z6 | z6 | z6 | z6 | z6 | z4 C,2 | B,,A,, G,,A,, B,,C, | D,2 z4 | A,,G,, A,,B,, A,,G,, | C,2 z4 | %155
 B,,2 z4 | A,,2 z4 | ^C,3 B,, A,,G,, | F,,F,, F,,2 F,,2 | =E,,E,, E,,2 E,,2 | D,,D,, D,,2 D,,2 | %161
 C,,C,, C,,2 C,,2 | =E,,2 z2!p! ^C,2 | =B,,2 z2 ^C,2 | A,,2 z2 =B,,2 | ^G,,2 z2 A,,2 | %166
 A,,2 z2 ^C,2 | ^C,2 z2 D,2 | ^C,2 =B,,2 A,,2 | ^C,2 z2 =B,,2 | =B,,2 z2 D,2 | ^C,2 z2 D,2 | %172
 =B,,2 z2 ^C,2 | A,,2 z2 =B,,2 | =B,,2 z2 D,2 | D,2 z2 =E,2 | D,2 ^C,2 =B,,2 | D,2 z2 ^C,2 | %178
 ^C,2 ^G,,2 A,,2 | z2 ^G,,2 A,,2 | z2 ^G,,2 A,,2 | z2 ^G,,2 A,,2 | z2 ^G,,2 A,,2 | z2 ^G,,2 A,,2 | %184
 z2 ^G,,2 A,,2 | z2 ^G,,2 A,,2 | z2 ^G,,2 A,,2 | z2 ^G,,2 A,,2 | z2 ^G,,2 A,,2 | z2 ^G,,2 A,,2 | %190
 z2 ^G,,2 A,,2 | z2 ^G,,2 A,,2 | z2 ^G,,2 A,,2 | z2 ^G,,2 A,,2 ||[K:B]!p! B,,2 z4 | %195
 B,,,D,, F,,B,, F,,D,, | z6 | B,,,D,, F,,B,, F,,D,, | z6 | B,,,=D,, =G,,B,, G,,D,, | z6 | %201
 B,,,=D,, =G,,B,, G,,D,, | z6 | B,,,D,, F,,B,, F,,D,, | z6 | B,,,D,, F,,B,, F,,D,, | z6 | %207
 B,,,=D,, =G,,B,, G,,D,, | z6 | B,,,=D,, =G,,B,, G,,D,, | z6 | B,,,D,, F,,B,, F,,D,, | z6 | %213
 B,,,D,, F,,B,, F,,D,, | z6 | B,,,E,, G,,B,, G,,E,, | z6 | B,,,C,, E,,A,, E,,C,, | z6 | %219
 B,,,D,, F,,B,, F,,D,, | z6 | B,,,D,, F,,B,, F,,D,, | z6 | B,,,E,, G,,B,, G,,E,, | z6 | %225
 B,,,C,, E,,A,, E,,C,, | z6 | z6 | z6 | z6 | z6 | z6 | z6 | z6 |!mp! D,,2 D,,D,, D,,2 | %235
 D,,2 D,,D,, D,,2 | D,,2 D,,D,, D,,2 | D,,2 D,,D,, D,,2 | D,,2 D,,D,, D,,2 | D,,2 D,,D,, D,,2 | %240
 _E,,2 E,,E,, E,,2 | _E,,2 E,,E,, E,,2 |[K:Bb]!mf! G,,4 G,,2 | ^F,,2 A,,2 D,2 | ^C,2 B,,2 G,,2 | %245
 ^F,,2 A,,2 D,2 | ^C,2 B,,2 G,,2 | ^F,,2 A,,2 D,2 | ^C,2 B,,2 G,,2 |!f! ^C,2 B,,2 G,,2 | %250
!ff! ^C,2 B,,2 G,,2 |!fff! B,,4 B,,2 | ^F,,4 F,,2 | B,,4 B,,2 | ^F,,4 F,,2 |!ff! _A,,4 A,,2 | %256
 =E,,4 E,,2 | _A,,4 A,,2 | D,,4 D,,2 |!f! C,4 C,2 | B,,4 B,,2 | A,,4 A,,2 | G,,4 G,,2 | %263
!mf! ^F,,4 F,,2 | G,,4 G,,2 | ^F,,4 F,,2 | G,,4 G,,2 |!mp! D,,4 D,,2 | E,,4 E,,2 | C,,4 C,,2 | %270
 E,,4 E,,2 | z2!p! A,,,A,,, A,,,A,,, | z2 A,,,A,,, A,,,A,,, | z2 A,,,A,,, A,,,A,,, | %274
 D,,2 A,,,2 D,,2 | z2!p! G,,B,, G,,A,, | B,,2 E,,G,, E,,F,, | G,,2 B,,,E,, B,,,D,, | %278
 E,,2 E,,E,, E,,E,, | D,,2 A,,,A,,, A,,,A,,, | z2!p! A,,,A,,, A,,,A,,, | z2!mp! A,,,A,,, A,,,A,,, | %282
!mf! D,,2 A,,,2 D,,2 | z2!p! G,,B,, G,,A,, | B,,2 E,,G,, E,,F,, | G,,2 B,,,E,, B,,,D,, | %286
 E,,2 E,,E,, E,,E,, | D,,2 z2!f! A,,2 | z2 z2 A,,2 | z !tenuto!A,, z !tenuto!A,, z !tenuto!A,, | %290
 z2 A,,2!mp! ^F,,2 | G,,2 G,,2 E,,2 | E,,E,, E,,2 E,,2 | E,,E,, E,,E,, E,,E,, | %294
 E,,2 E,,2!mf! G,,2 | _A,,2 A,,2!mp! E,,2 | E,,E,, E,,2!mf! E,,2 | =E,,2 E,,2 ^C,2 | %298
 ^C,C, C,2!pp! C,2 | D,2 ^F,,A,, F,,A,, | ^F,,A,, F,,A,, F,,A,, | =F,,A,, F,,A,, F,,A,, | %302
 F,,A,, F,,A,, F,,A,, | =E,,A,, E,,A,, E,,A,, | =E,,A,, E,,A,, E,,A,, | ^F,,A,, F,,A,, F,,A,, | %306
 ^F,,A,, F,,A,, F,,A,, | z G,, z G,, z G,, | z G,, z G,, z G,, | z G,, z G,, z G,, | %310
 z G,, z G,, z G,, | =E,,G,, E,,G,, E,,G,, | =E,,G,, E,,G,, E,,G,, | _E,, z E,, z E,, z | %314
 _E,, z E,, z E,, z |!pp! ^F,,,4 G,,,2 | ^G,,,4 A,,,2 | C,,4 B,,,2 | A,,,4 B,,,2 |!p! ^C,,4 D,,2 | %320
 F,,4 E,,2 | D,,4 E,,2 | G,,4 ^F,,2 |!mp! A,,4 G,,2 | C,4 B,,2 | A,,4 B,,2 | C,4 B,,2 | %327
!mf! A,,4 B,,2 | C,4 B,,2 | A,,4 B,,2 | A,,4 B,,2 | A,,4 B,,2 | ^F,,4 G,,2 | ^F,,4 G,,2 | %334
 ^F,,4 G,,2 | ^F,,4 G,,2 |!f! ^F,,2 F,,F,, F,,F,, | ^F,,2 F,,2 F,,2 | z2 ^F,,F,, F,,F,, | %339
 ^F,,2 F,,2 F,,2 | ^F,,C,, E,,D,, C,,A,,, | D,,2 z4 | ^F,,C,, E,,D,, C,,A,,, | D,,2 z4 | %344
!ff! G,,^G,, A,,B,, =B,,C, | D,2 z4 | z2 z4 | G,,2 z2 G,,2 | B,,4 B,,2 | B,,4 B,,2 | B,,4 B,,2 | %351
 B,,4 B,,2 | B,,4 B,,2 | A,,4 A,,2 | A,,2 A,,B,, =B,,^C, | D,2 D,D, D,D, | B,,4 B,,2 | B,,4 B,,2 | %358
 B,,4 B,,2 | B,,4 B,,2 | B,,4 B,,2 | ^F,,4 F,,2 | ^F,,4 F,,2 | ^F,,2 D,,D,, D,,D,, | %364
 ^C,,2 D,,D,, D,,D,, | ^C,,2 D,,D,, D,,D,, | ^C,,2 D,,D,, D,,D,, | ^C,,2!f! D,,D,, D,,D,, | %368
 C,2 z4 | C,2 z4 | C,2 z4 | B,,2 D,,G,, B,,D, | D,,2 D,,2 z2 | E,,2 E,,2 z2 | A,,,2 A,,,2 z2 | %375
 B,,,2 B,,,2 z2 | E,,2 E,,2 z2 | G,,2 G,,2 z2 | ^F,,2 F,,2 z2 | D,,D,, D,,G,, B,,D, | %380
 D,,2 D,,2 z2 | E,,2 E,,2 z2 | A,,,2 A,,,2 z2 | B,,,2 B,,,2 z2 | E,,2 E,,2 z2 | G,,2 G,,2 z2 | %386
 ^F,,2 F,,2 z2 | G,,2 G,,2 z2 | ^F,,2 F,,2 z2 | G,,2 G,,2 z2 | ^F,,2 F,,2 z2 | ^F,,2 F,,2 z2 | %392
 ^F,,2 F,,2 z2 | G,,2 B,,2 D,2 | F,,2 A,,2 B,,2 | C,,2 G,,2 _A,,2 | E,,E,, E,,E,, E,,2 | %397
 ^F,,F,, F,,F,, F,,2 | G,,2 B,,2 C,2 | A,,2 F,,2 B,,2 | G,,2 E,,2 _A,,2 | E,,E,, E,,E,, E,,2 | %402
 ^F,,F,, F,,F,, F,,2 | B,,2 B,,2 z2 | ^F,,2 F,,2 z2 | B,,2 B,,2 z2 | ^F,,2 F,,2 z2 | B,,2 B,,2 z2 | %408
 B,,2 B,,2 z2 | B,,2 B,,2 z2 | B,,2 B,,2 B,,2 | B,,2 B,,2 B,,2 | B,,2 B,,2 B,,2 | B,,2 B,,2 B,,2 | %414
 B,,2 B,,2 B,,2 | E,,6- | E,,6- | E,,6- | E,,6- | E,,6- | E,,6- | E,,6 |!p! G,,6- | !fermata!G,,6 | %424
 G,,6- | G,,6- | G,,6- | G,,6 | G,,6- | G,,6- | G,,6- | G,,6 | E,,6- | E,,2 z4 | z6 | z6 | z6 | %437
 z6 | z6 | z6 | z2!f! G,,A,, B,,G,, | D,2 z4 | z6 | z2!p! .B,,2 .G,,2 | B,,2 z4 |!pp! D,2 z4 | %446
!ppp! D,2 z4 |] %447
V:4
!p! A,,,6 | A,,,6 | A,,,6 | A,,,6 | A,,,6 | A,,,6 | A,,,6 | A,,,6 | A,,,6 | A,,,6 | A,,,6 | %11
 A,,,6- | A,,,6- | A,,,6- | A,,,6- | A,,,6 | z6 | D,,2 z4 | A,,2 z4 | C,,2 z4 | ^F,,2 z4 | %21
 A,,,2 z4 | C,,2 z4 | E,,2 z4 | D,,2 z4 |!f! !>!D,,6 | z6 | D,,4 D,,2 | z4 D,,2 | z4 D,,2 | %30
 z2 D,,2 z2 | D,,2 z2 D,,2 | G,,,2 z4 |!p! G,,,2 z4 | G,,,2 z4 | G,,,2 z4 | F,,,2 z4 | F,,,2 z4 | %38
 F,,,2 z4 | F,,,2 z4 |!mf! G,,,2 z4 | G,,,2 z4 | G,,2 z4 | G,,2 z4 | F,,2 z4 | F,,2 z4 | F,,2 z4 | %47
 F,,2 z4 | G,,2!p! G,,2 D,,2 | G,,,2 z4 | G,,,2 z4 | G,,,2 z4 | G,,,2 z4 | G,,,2 z4 | A,,,2 z4 | %55
 A,,,2 z4 | D,,2 z4 |!mp! G,,,2 z4 | G,,,2 z4 | G,,,2 z4 | G,,,2 z4 | G,,,2 z4 | A,,,2 z4 | %63
 A,,,4 A,,,2 |!pp! D,,2 z4 | D,,2 z4 | D,,2 z4 | D,,2 z4 |!mp! C,,2 z4 | C,,2 z4 | C,,2 z4 | %71
 C,,2 z4 |!pp! D,,2 z4 | D,,2 z4 | D,,2 z4 | D,,2 z4 |!mf! C,,2 z4 | C,,2 z4 | C,,2 z4 | C,,2 z4 | %80
 D,,2 D,,D,, D,,D,, | z2 D,,D,, D,,D,, | z2 D,,2 z2 | D,,2 z2 !tenuto!D,,2 | G,,,2 z4 | G,,,2 z4 | %86
 G,,,2 z4 | G,,,2 z4 | F,,2 z4 | F,,2 z4 | F,,2 z4 | F,,2 z4 |!f! G,,,2 z4 | G,,2 z4 | G,,2 z4 | %95
 G,,2 z4 | F,,2 z4 | F,,2 z4 | F,,2 z4 | F,,2 z4 | G,,2 G,,2 z2 | G,,,2 z4 | G,,,2 z4 | G,,,2 z4 | %104
 G,,,2 z4 | G,,,2 z4 | A,,,2 z4 | A,,,2 z4 | D,,2 z4 | G,,,2 z4 | G,,,2 z4 | G,,,2 z4 | G,,,2 z4 | %113
 G,,,2 z4 | A,,,2 z4 | A,,,2 z2 A,,,2 | D,,2 z4 |!pp! D,,2 z4 | D,,2 z4 | D,,2 z4 |!mf! C,,2 z4 | %121
 C,,2 z4 | C,,2 z4 | C,,2 z4 |!pp! D,,2 z4 | D,,2 z4 | D,,2 z4 | D,,2 z4 | C,,2 z4 | C,,2 z4 | %130
 C,,2 z4 | C,,2 z4 |!f! D,,2 D,,D,, D,,D,, | z2 D,,D,, D,,D,, | z2 D,,2 z2 | D,,2 z2 D,,2 | %136
 G,,,2 z4 | z6 | z6 | z6 | z6 | z6 | z6 | z4 A,,,2 | F,,=E,, F,,E,, F,,G,, | A,,2 z A,,, =B,,,C,, | %146
 D,,C,, D,,F,, =E,,D,, | G,,2 z G,, F,,=E,, | F,,2 z =E,, D,,F,, | A,,2 z =E,, ^F,,G,, | %150
 ^F,,=E,, F,,D,, E,,F,, | G,,2 z4 | D,,C,, D,,=E,, F,,G,, | A,,2 z4 | C,,D,, C,,D,, E,,F,, | %155
 G,,^F,, G,,2 G,,2 | D,,2 G,,2 B,,2- | B,,2 A,,G,, F,,=E,, | D,,2 F,,,2 D,,2 | A,,,2 z4 | %160
 z2 F,,2 D,,2 | ^D,,2 z4 |!pp! =E,,^D,, E,,D,, E,,D,, | =E,,^D,, E,,D,, E,,D,, | %164
 =E,,^D,, E,,D,, E,,D,, | =E,,^D,, E,,D,, E,,D,, | =E,,^D,, E,,D,, E,,D,, | %167
 =E,,^D,, E,,D,, E,,D,, | =E,,^D,, E,,D,, E,,D,, | =E,,^D,, E,,D,, E,,D,, | %170
 =E,,^D,, E,,D,, E,,D,, | =E,,^D,, E,,D,, E,,D,, | =E,,^D,, E,,D,, E,,D,, | %173
 =E,,^D,, E,,D,, E,,D,, | =E,,^D,, E,,D,, E,,D,, | =E,,^D,, E,,D,, E,,D,, | %176
 =E,,^D,, E,,D,, E,,D,, | =E,,^D,, E,,D,, E,,D,, | A,,,^G,,, A,,,G,,, A,,,G,,, | %179
 A,,,^G,,, A,,,G,,, A,,,G,,, | A,,,^G,,, A,,,G,,, A,,,G,,, | A,,,^G,,, A,,,G,,, A,,,G,,, | %182
 A,,,^G,,, A,,,G,,, A,,,G,,, | A,,,^G,,, A,,,G,,, A,,,G,,, | A,,,^G,,, A,,,G,,, A,,,G,,, | %185
 A,,,^G,,, A,,,G,,, A,,,G,,, | A,,,^G,,, A,,,G,,, A,,,G,,, | A,,,^G,,, A,,,G,,, A,,,G,,, | %188
 A,,,^G,,, A,,,G,,, A,,,G,,, | A,,,^G,,, A,,,G,,, A,,,G,,, | A,,,^G,,, A,,,G,,, A,,,G,,, | %191
 A,,,^G,,, A,,,G,,, A,,,G,,, | A,,,^G,,, A,,,G,,, A,,,G,,, | A,,,2 A,,,2 ^A,,,2 || %194
[K:B]!p! B,,,D,, F,,B,, F,,D,, | z6 | B,,,D,, F,,B,, F,,D,, | z6 | B,,,=D,, =G,,B,, G,,D,, | z6 | %200
 B,,,=D,, =G,,B,, G,,D,, | z6 | B,,,D,, F,,B,, F,,D,, | z6 | B,,,D,, F,,B,, F,,D,, | z6 | %206
 B,,,=D,, =G,,B,, G,,D,, | z6 | B,,,=D,, =G,,B,, G,,D,, | z6 | B,,,D,, F,,B,, F,,D,, | z6 | %212
 B,,,D,, F,,B,, F,,D,, | z6 | B,,,E,, G,,B,, G,,E,, | z6 | B,,,C,, E,,A,, E,,C,, | z6 | %218
 B,,,D,, F,,B,, F,,D,, | z6 | B,,,D,, F,,B,, F,,D,, | z6 | B,,,E,, G,,B,, G,,E,, | z6 | %224
 B,,,C,, E,,A,, E,,C,, | z6 |!mf! B,,,2 B,,,D,, B,,,C,, | D,,2 C,,2 B,,,2 | %228
 z2 =G,,,B,,, G,,,=A,,, | B,,,2 =A,,,2 =G,,,2 | z2 B,,,D,, B,,,C,, | D,,2 C,,2 B,,,2 | %232
 z2 G,,,B,,, G,,,A,,, | B,,,2 A,,,2 G,,,2 |!mp! B,,,2 B,,,2 B,,,B,,, | B,,,2 B,,,2 B,,,B,,, | %236
 A,,,2 A,,,2 A,,,A,,, | A,,,2 A,,,2 A,,,A,,, | =A,,,2 A,,,2 A,,,A,,, | =A,,,2 A,,,2 A,,,A,,, | %240
 _A,,,2 A,,,2 A,,,A,,, | _A,,,2 A,,,2 A,,,A,,, |[K:Bb]!mf! G,,,2 D,,2 G,,,2 | ^F,,,2 A,,,2 D,,2 | %244
 ^C,,2 B,,,2 G,,,2 | ^F,,,2 A,,,2 D,,2 | ^C,,2 B,,,2 G,,,2 | ^F,,,2 A,,,2 D,,2 | %248
 ^C,,2 B,,,2 G,,,2 |!f! ^C,,2 B,,,2 G,,,2 |!ff! ^C,,2 B,,,2 G,,,2 |!fff! ^C,,4 C,,2 | D,,4 D,,2 | %253
 ^C,,4 C,,2 | D,,4 D,,2 |!ff! =B,,,4 B,,,2 | C,,4 C,,2 | A,,,4 A,,,2 | B,,,4 B,,,2 | %259
!f! ^F,,,4 F,,,2 | G,,,4 G,,,2 | A,,,4 A,,,2 | B,,,4 B,,,2 |!mf! C,,4 C,,2 | B,,,4 B,,,2 | %265
 C,,4 C,,2 | B,,,4 B,,,2 |!mp! C,,4 C,,2 | B,,,4 B,,,2 | A,,,4 A,,,2 | G,,,4 G,,,2 | %271
!p! D,,2 z2 z2 | D,,2 z2 z2 | D,,2 z2 z2 | D,,2 z2 z2 |!pp! C,,2 z4 | z6 | z6 | z6 | D,,2 z2 z2 | %280
!p! D,,2 z2 z2 |!mp! D,,2 z2 z2 |!mf! D,,2 z2 z2 |!p! C,,2 z4 | z6 | z6 | z6 | %287
!f! D,,D,, D,,2 D,,2 | z2 z2 D,,2 | z !tenuto!D,, z !tenuto!D,, z !tenuto!D,, | z2 D,,2!mp! D,,2 | %291
 _D,,2 D,,2 D,,2 | _D,,D,, D,,2 D,,2 | _D,,D,, D,,D,, D,,D,, | _D,,2 D,,2!mf! D,,2 | %295
 C,,2 C,,2!mp! C,,2 | C,,C,, C,,2!mf! C,,2 | B,,,2 B,,,2!mp! B,,2 | B,,B,, B,,2!pp! G,,2 | %299
 D,, z D,, z D,, z | D,, z D,, z D,, z | D,, z D,, z D,, z | D,, z D,, z D,, z | %303
 D,, z D,, z D,, z | D,, z D,, z D,, z | D,, z D,, z D,, z | D,, z D,, z D,, z | %307
 D,, z D,, z D,, z | D,, z D,, z D,, z | D,, z D,, z D,, z | D,, z D,, z D,, z | %311
 D,, z D,, z D,, z | D,, z D,, z D,, z | D,, z D,, z D,, z | D,, z D,, z D,, z |!pp! D,,6 | D,,6 | %317
 D,,6 | D,,6 |!p! D,,6 | D,,6 | D,,6 | D,,6 |!mp! D,,6 | D,,2 D,,D,, D,,D,, | D,,2 D,,2 D,,2 | %326
 z2 D,,D,, D,,D,, |!mf! D,,2 D,,2 D,,2 | D,,6 | D,,6 | D,,6 | D,,4 D,,2 | D,,4 D,,2 | D,,4 D,,2 | %334
 D,,4 D,,2 | D,,4 D,,2 |!f! D,,2 D,,D,, D,,D,, | D,,2 D,,2 D,,2 | z2 D,,D,, D,,D,, | %339
 D,,2 D,,2 D,,2 | D,,2 z4 | D,,2 z4 | D,,2 z4 |!ff! D,,D,, E,,=E,, F,,^F,, | D,,2 z4 | D,,2 z4 | %346
 D,,2 z4 | G,,,2 z2 G,,,2 | G,,,4 G,,,2 | G,,,4 G,,,2 | G,,,4 G,,,2 | G,,,4 G,,,2 | G,,,4 G,,,2 | %353
 A,,,4 A,,,2 | A,,,2 A,,,A,,, A,,,A,,, | D,,2 z2 G,,,2 | G,,,4 G,,,2 | G,,,4 G,,,2 | G,,,4 G,,,2 | %359
 G,,,4 G,,,2 | G,,,4 G,,,2 | A,,,2 A,,,A,,, A,,,A,,, | A,,,2 A,,,A,,, A,,,A,,, | %363
 D,,2!mf! D,,D,, D,,D,, | ^C,,2 D,,D,, D,,D,, | ^C,,2 D,,D,, D,,D,, | ^C,,2 D,,D,, D,,D,, | %367
 ^C,,2!f! D,,D,, D,,D,, | =C,,2 D,,D,, D,,D,, | C,,2 D,,D,, D,,D,, | C,,2 D,,D,, D,,D,, | %371
 B,,,2 z4 | B,,,2 B,,,2 z2 | C,,2 C,,2 z2 | ^F,,,2 F,,,2 z2 | G,,,2 G,,,2 z2 | C,,2 C,,2 z2 | %377
 D,,2 D,,2 z2 | D,,2 D,,2 z2 | G,,G,, G,,2 z2 | B,,,2 B,,,2 z2 | C,,2 C,,2 z2 | ^F,,,2 F,,,2 z2 | %383
 G,,,2 G,,,2 z2 | C,,2 C,,2 z2 | D,,2 D,,2 z2 | D,,2 D,,2 z2 | D,,2 D,,2 z2 | D,,2 D,,2 z2 | %389
 D,,2 D,,2 z2 | D,,2 D,,2 z2 | D,,2 D,,2 z2 | D,,2 D,,2 z2 | G,,,2 B,,,2 C,,2 | F,,,2 A,,,2 B,,,2 | %395
 E,,2 G,,2 _A,,2 | C,,C,, C,,C,, C,,2 | D,,D,, D,,D,, D,,2 | G,,,2 B,,,2 C,,2 | A,,,2 F,,,2 B,,,2 | %400
 G,,2 E,,2 _A,,2 | C,,C,, C,,C,, C,,2 | D,,D,, D,,D,, D,,2 | G,,,B,,, G,,,A,,, B,,,2 | %404
 C,,=B,,, _B,,,A,,, _A,,,2 | G,,,B,,, G,,,A,,, B,,,2 | C,,=B,,, _B,,,A,,, _A,,,2 | %407
 G,,,B,,, G,,,A,,, B,,,2 | G,,,B,,, G,,,A,,, B,,,2 | G,,,B,,, G,,,A,,, B,,,2 | G,,,2 G,,,2 G,,,2 | %411
 G,,,2 G,,,2 G,,,2 | G,,,2 G,,,2 G,,,2 | G,,,2 G,,,2 G,,,2 | G,,,2 G,,,2 G,,,2 | z6 | z6 | z6 | %418
 z6 | z6 | z6 | z6 |!p! ^C,,6- | !fermata!C,,6 |!p! D,,6- | D,,6- | D,,6- | D,,6 | D,,6- | D,,6- | %430
 D,,6- | D,,6 | C,,6- | C,,2 z4 | z6 | z6 | z6 | z6 | z2!f! G,,,B,,, A,,,B,,, | %439
 A,,,G,,, G,,,A,,, B,,,G,,, | D,, z z4 | z6 | z6 | z2!p! .B,,,2 .G,,,2 | D,,2 z4 |!pp! D,,2 z4 | %446
!ppp! G,,2 z4 |] %447

